img/testimonials/star.svg

<svg width="20" height="19" viewBox="0 0 20 19" fill="none" xmlns="http://www.w3.org/2000/svg">
<path d="M10.1861 14.6459L10 14.5481L9.81386 14.6459L4.6534 17.359L5.63896 11.6127L5.67451 11.4054L5.52392 11.2587L1.34902 7.18913L7.11859 6.35076L7.3267 6.32052L7.41977 6.13194L10 0.90382L12.5802 6.13194L12.6733 6.32052L12.8814 6.35076L18.651 7.18913L14.4761 11.2587L14.3255 11.4054L14.361 11.6127L15.3466 17.359L10.1861 14.6459Z" fill="#FFF3B7" stroke="#00409F" stroke-width="0.8"/>
</svg>

<svg width="20" height="19" fill="none" xmlns="http://www.w3.org/2000/svg"><path d="M10.186 14.646L10 14.548l-.186.098-5.16 2.713.985-5.746.036-.208-.151-.146-4.175-4.07 5.77-.838.208-.03.093-.19L10 .905l2.58 5.228.093.189.208.03 5.77.838-4.175 4.07-.15.146.035.208.986 5.746-5.16-2.713z" fill="#FFF3B7" stroke="#00409F" stroke-width=".8"/></svg>
